;FLAVOR:Marlin
;TIME:8578
;Filament used: 7.3635m
;Layer height: 0.2
;MINX:58.608
;MINY:58.582
;MINZ:0.2
;MAXX:151.395
;MAXY:151.419
;MAXZ:23
;Generated with Cura_SteamEngine 4.13.1
M140 S60
M105
M190 S60
M104 S200
M105
M109 S200
M82 ;absolute extrusion mode
G21 ;metric values
G90 ;absolute positioning
M82 ;set extruder to absolute mode
M107 ;start with the fan off
G28 X0 Y0 ;move X/Y to min endstops
G28 Z0 ;move Z to min endstops
G1 Z15.0 F100 ;move the platform down 15mm
G92 E0 ;zero the extruded length
G1 F200 E3 ;extrude 3mm of feed stock
G92 E0 ;zero the extruded length again
G1 F100
G0 Y20 F100
M117 Printing...
G5
G92 E0
G92 E0
G1 F2400 E-6
;LAYER_COUNT:115
;LAYER:0
M107
M204 S3000
M205 X10 Y10
G1 F600 Z0.275
G0 F3000 X60.593 Y60.537 Z0.275
M204 S1800
M205 X8 Y8
;TYPE:SKIRT
G1 F600 Z0.2
G1 F2400 E0
G1 X61.12 Y60.052 E0.03335
G1 X61.697 Y59.63 E0.06664
G1 X62.318 Y59.275 E0.09994
G1 X62.975 Y58.991 E0.13327
G1 X63.659 Y58.783 E0.16656
G1 X64.362 Y58.652 E0.19986
G1 X65.066 Y58.6 E0.23273
G1 X66.133 Y58.582 E0.28242
G1 X79.37 Y58.596 E0.89879
G1 X80.038 Y58.606 E0.9299
G1 X80.751 Y58.656 E0.96318
G1 X81.455 Y58.786 E0.99652
G1 X82.139 Y58.994 E1.02981
G1 X82.796 Y59.277 E1.06312
G1 X83.417 Y59.631 E1.0964
G1 X83.995 Y60.052 E1.1297
G1 X84.61 Y60.627 E1.1689
G1 X84.731 Y60.756 E1.17714
G1 X85.19 Y61.304 E1.21042
G1 X85.586 Y61.9 E1.24374
G1 X85.876 Y62.456 E1.27294
G1 X86.039 Y62.81 E1.29109
G1 X87.197 Y65.234 E1.41618
G1 X88.428 Y67.635 E1.54182
G1 X89.751 Y70.043 E1.66976
G1 X90.026 Y70.607 E1.69897
G1 X90.089 Y70.753 E1.70638
G1 X91.167 Y73.181 E1.83008
G1 X92.322 Y75.593 E1.9546
G1 X93.529 Y77.943 E2.07762
G1 X94.81 Y80.272 E2.20139
G1 X96.142 Y82.536 E2.3237
G1 X97.544 Y84.775 E2.44671
G1 X99.029 Y87.005 E2.57147
G1 X100.549 Y89.15 E2.69388
G1 X102.147 Y91.278 E2.8178
G1 X103.778 Y93.326 E2.93971
G1 X105.498 Y95.363 E3.06385
G1 X107.252 Y97.325 E3.18639
G1 X109.09 Y99.27 E3.311
G1 X110.942 Y101.119 E3.43286
G1 X112.892 Y102.962 E3.5578
G1 X114.854 Y104.711 E3.68019
G1 X116.87 Y106.41 E3.80295
G1 X118.961 Y108.073 E3.92736
G1 X121.077 Y109.661 E4.05055
G1 X123.206 Y111.165 E4.17192
G1 X125.442 Y112.653 E4.29699
G1 X127.659 Y114.038 E4.41871
G1 X129.966 Y115.391 E4.54324
G1 X132.294 Y116.67 E4.66693
G1 X134.63 Y117.868 E4.78917
G1 X137.053 Y119.025 E4.9142
G1 X138.871 Y119.838 E5.00693
G1 X139.446 Y120.089 E5.03615
G1 X139.92 Y120.32 E5.0607
G1 X140.594 Y120.684 E5.09637
G1 X141.73 Y121.319 E5.15697
G1 X144.091 Y122.551 E5.28097
G1 X146.493 Y123.719 E5.40534
G1 X147.584 Y124.23 E5.46144
G1 X148.214 Y124.57 E5.49478
G1 X148.802 Y124.977 E5.52808
G1 X149.394 Y125.501 E5.56489
G1 X149.51 Y125.617 E5.57253
G1 X149.987 Y126.15 E5.60583
G1 X150.401 Y126.733 E5.63913
G1 X150.748 Y127.359 E5.67246
G1 X151.023 Y128.019 E5.70575
G1 X151.222 Y128.706 E5.73906
G1 X151.343 Y129.411 E5.77236
G1 X151.381 Y129.926 E5.79641
G1 X151.394 Y130.591 E5.82738
G1 X151.395 Y144.164 E6.4594
G1 X151.384 Y144.984 E6.49758
G1 X151.335 Y145.698 E6.53091
G1 X151.206 Y146.401 E6.56419
G1 X150.999 Y147.086 E6.59751
G1 X150.717 Y147.744 E6.63084
G1 X150.364 Y148.365 E6.66411
G1 X149.943 Y148.944 E6.69744
G1 X149.551 Y149.382 E6.72481
G1 X149.441 Y149.494 E6.73212
G1 X148.912 Y149.975 E6.76541
G1 X148.333 Y150.395 E6.79872
G1 X147.71 Y150.747 E6.83204
G1 X147.052 Y151.027 E6.86534
G1 X146.367 Y151.233 E6.89864
G1 X145.663 Y151.36 E6.93195
G1 X145.088 Y151.405 E6.95881
G1 X144.394 Y151.419 E6.99113
G1 X137.357 Y151.418 E7.31881
G1 X136.001 Y151.399 E7.38195
G1 X133.254 Y151.399 E7.50986
G1 X133.049 Y151.404 E7.51941
G1 X131.729 Y151.419 E7.58088
G1 X123.993 Y151.419 E7.9411
G1 X105.989 Y151.413 E8.77944
G1 X98.362 Y151.407 E9.13459
G1 X96.84 Y151.385 E9.20547
G1 X94.125 Y151.383 E9.33189
G1 X93.257 Y151.401 E9.37232
G1 X92.852 Y151.404 E9.39117
G1 X85.588 Y151.398 E9.72942
G1 X84.333 Y151.381 E9.78786
G1 X84.155 Y151.376 E9.79615
G1 X83.456 Y151.347 E9.82873
G1 X83.155 Y151.328 E9.84277
G1 X82.276 Y151.25 E9.88386
G1 X81.798 Y151.196 E9.90626
G1 X81.031 Y151.091 E9.94231
G1 X80.494 Y151.003 E9.96765
G1 X79.646 Y150.841 E10.00785
G1 X79.117 Y150.726 E10.03306
G1 X78.305 Y150.527 E10.07199
G1 X78.039 Y150.456 E10.08481
G1 X77.297 Y150.24 E10.12079
G1 X76.798 Y150.082 E10.14516
G1 X76.651 Y150.033 E10.15238
G1 X75.969 Y149.795 E10.18601
G1 X75.494 Y149.615 E10.20967
G1 X74.622 Y149.262 E10.25347
G1 X74.35 Y149.145 E10.26726
G1 X73.691 Y148.842 E10.30103
G1 X73.082 Y148.542 E10.33264
G1 X72.266 Y148.112 E10.37559
G1 X72.011 Y147.97 E10.38918
G1 X71.319 Y147.564 E10.42654
G1 X70.84 Y147.266 E10.45281
G1 X70.23 Y146.867 E10.48675
G1 X69.811 Y146.577 E10.51048
G1 X69.066 Y146.034 E10.55341
G1 X68.766 Y145.803 E10.57104
G1 X68.203 Y145.352 E10.60463
G1 X67.819 Y145.029 E10.62799
G1 X67.688 Y144.915 E10.63608
G1 X67.129 Y144.413 E10.67106
G1 X66.801 Y144.105 E10.69201
G1 X66.252 Y143.566 E10.72784
G1 X65.869 Y143.169 E10.75352
G1 X65.24 Y142.485 E10.79679
G1 X65.019 Y142.231 E10.81247
G1 X64.445 Y141.544 E10.85416
G1 X63.951 Y140.905 E10.89177
G1 X63.398 Y140.147 E10.93546
G1 X63.281 Y139.98 E10.94495
G1 X62.986 Y139.546 E10.96939
G1 X62.804 Y139.263 E10.98505
G1 X62.101 Y138.102 E11.04825
G1 X61.955 Y137.847 E11.06194
G1 X61.618 Y137.228 E11.09475
G1 X61.295 Y136.58 E11.12847
G1 X61.015 Y135.956 E11.16032
G1 X60.732 Y135.338 E11.19197
G1 X60.511 Y134.822 E11.2181
G1 X60.401 Y134.544 E11.23203
G1 X60.142 Y133.843 E11.26682
G1 X59.96 Y133.315 E11.29283
G1 X59.911 Y133.166 E11.30013
G1 X59.701 Y132.494 E11.33292
G1 X59.567 Y132.025 E11.35563
G1 X59.334 Y131.123 E11.39901
G1 X59.261 Y130.803 E11.41429
G1 X59.092 Y129.992 E11.45287
G1 X59.001 Y129.494 E11.47644
G1 X58.865 Y128.626 E11.51735
G1 X58.827 Y128.344 E11.5306
G1 X58.735 Y127.519 E11.56925
G1 X58.685 Y126.915 E11.59747
G1 X58.65 Y126.313 E11.62555
G1 X58.629 Y125.753 E11.65165
G1 X58.624 Y125.572 E11.66008
G1 X58.608 Y124.383 E11.71545
G1 X58.615 Y117.363 E12.04233
G1 X58.638 Y115.877 E12.11153
G1 X58.642 Y113.169 E12.23763
G1 X58.622 Y112.212 E12.2822
G1 X58.619 Y111.832 E12.2999
G1 X58.652 Y78.399 E13.85668
G1 X58.674 Y76.957 E13.92383
G1 X58.676 Y74.231 E14.05076
G1 X58.667 Y73.845 E14.06874
G1 X58.657 Y72.676 E14.12318
G1 X58.664 Y65.661 E14.44983
G1 X58.675 Y65.002 E14.48052
G1 X58.727 Y64.289 E14.5138
G1 X58.858 Y63.586 E14.5471
G1 X59.067 Y62.902 E14.58041
G1 X59.351 Y62.245 E14.61373
G1 X59.706 Y61.624 E14.64704
G1 X60.128 Y61.047 E14.68033
G1 X60.486 Y60.647 E14.70533
G1 X60.593 Y60.537 E14.71247
M204 S3000
M205 X10 Y10
G0 F3000 X60.995 Y60.927
M204 S1800
M205 X8 Y8
G1 F2400 X61.499 Y60.466 E14.74428
G1 X62.054 Y60.067 E14.7761
G1 X62.651 Y59.735 E14.80791
G1 X63.283 Y59.476 E14.83972
G1 X63.941 Y59.292 E14.87153
G1 X64.616 Y59.186 E14.90335
G1 X65.076 Y59.16 E14.9248
G1 X66.133 Y59.142 E14.97403
G1 X79.361 Y59.156 E15.58998
G1 X80.029 Y59.166 E15.62109
G1 X80.711 Y59.216 E15.65293
G1 X81.382 Y59.345 E15.68474
G1 X82.033 Y59.552 E15.71655
G1 X82.655 Y59.834 E15.74835
G1 X83.241 Y60.186 E15.78019
G1 X83.781 Y60.604 E15.81198
G1 X84.201 Y61.01 E15.83918
G1 X84.322 Y61.139 E15.84742
G1 X84.76 Y61.663 E15.87922
G1 X85.133 Y62.236 E15.91106
G1 X85.367 Y62.69 E15.93484
G1 X85.515 Y63.012 E15.95134
G1 X86.708 Y65.51 E16.08024
G1 X87.903 Y67.84 E16.20217
G1 X89.261 Y70.312 E16.33351
G1 X89.511 Y70.827 E16.36016
G1 X90.672 Y73.442 E16.49339
G1 X91.82 Y75.841 E16.61723
G1 X93.033 Y78.203 E16.74087
G1 X94.317 Y80.537 E16.86491
G1 X95.672 Y82.84 E16.98933
G1 X97.085 Y85.098 E17.11336
G1 X98.561 Y87.313 E17.2373
G1 X100.088 Y89.468 E17.36029
G1 X101.709 Y91.627 E17.486
G1 X103.342 Y93.677 E17.60804
G1 X105.082 Y95.739 E17.73368
G1 X106.858 Y97.725 E17.85774
G1 X108.666 Y99.638 E17.9803
G1 X110.576 Y101.545 E18.10598
G1 X112.494 Y103.357 E18.22884
G1 X114.479 Y105.127 E18.35268
G1 X116.519 Y106.846 E18.4769
G1 X118.595 Y108.498 E18.60044
G1 X120.76 Y110.122 E18.72646
G1 X122.892 Y111.628 E18.848
G1 X125.139 Y113.123 E18.97368
G1 X127.388 Y114.529 E19.09718
G1 X129.69 Y115.879 E19.22144
G1 X132.019 Y117.158 E19.34517
G1 X134.383 Y118.37 E19.46887
G1 X136.817 Y119.533 E19.59448
G1 X138.691 Y120.371 E19.69007
G1 X139.222 Y120.603 E19.71705
G1 X139.655 Y120.813 E19.73946
G1 X140.321 Y121.172 E19.77469
G1 X141.489 Y121.825 E19.837
G1 X143.824 Y123.043 E19.95963
G1 X146.314 Y124.254 E20.08856
G1 X147.346 Y124.738 E20.14164
G1 X147.947 Y125.063 E20.17345
G1 X148.506 Y125.457 E20.2053
G1 X148.999 Y125.896 E20.23604
G1 X149.115 Y126.012 E20.24367
G1 X149.569 Y126.523 E20.2755
G1 X149.96 Y127.083 E20.30731
G1 X150.283 Y127.685 E20.33912
G1 X150.534 Y128.321 E20.37096
G1 X150.708 Y128.981 E20.40274
G1 X150.822 Y129.945 E20.44794
G1 X150.835 Y130.598 E20.47835
G1 X150.834 Y144.244 E21.11377
G1 X150.824 Y144.977 E21.1479
G1 X150.775 Y145.658 E21.17969
G1 X150.647 Y146.329 E21.2115
G1 X150.441 Y146.981 E21.24334
G1 X150.16 Y147.603 E21.27512
G1 X149.808 Y148.189 E21.30695
G1 X149.391 Y148.73 E21.33876
G1 X149.042 Y149.101 E21.36248
G1 X148.535 Y149.56 E21.39432
G1 X147.979 Y149.956 E21.42611
G1 X147.38 Y150.285 E21.45793
G1 X146.746 Y150.541 E21.48977
G1 X146.087 Y150.722 E21.52159
G1 X145.412 Y150.824 E21.55338
G1 X144.796 Y150.854 E21.58209
G1 X144.387 Y150.859 E21.60114
G1 X137.365 Y150.858 E21.92811
G1 X136.009 Y150.839 E21.99126
G1 X133.241 Y150.839 E22.12015
G1 X133.042 Y150.844 E22.12942
G1 X131.722 Y150.859 E22.19089
G1 X123.993 Y150.859 E22.55078
G1 X105.989 Y150.853 E23.38913
G1 X98.371 Y150.847 E23.74385
G1 X96.85 Y150.825 E23.81468
G1 X94.114 Y150.823 E23.94208
G1 X93.252 Y150.841 E23.98223
G1 X92.852 Y150.844 E24.00086
G1 X85.596 Y150.838 E24.33873
G1 X84.341 Y150.821 E24.39717
G1 X84.178 Y150.817 E24.40476
G1 X83.479 Y150.788 E24.43734
G1 X83.205 Y150.77 E24.45012
G1 X82.183 Y150.678 E24.4979
G1 X81.874 Y150.641 E24.5124
G1 X81.107 Y150.536 E24.54844
G1 X80.598 Y150.453 E24.57246
G1 X79.761 Y150.293 E24.61214
G1 X79.25 Y150.182 E24.63649
G1 X78.438 Y149.983 E24.67542
G1 X78.196 Y149.918 E24.68708
G1 X77.454 Y149.702 E24.72307
G1 X76.97 Y149.549 E24.74671
G1 X76.154 Y149.266 E24.78692
G1 X75.705 Y149.096 E24.80928
G1 X74.833 Y148.743 E24.85308
G1 X74.584 Y148.636 E24.8657
G1 X73.925 Y148.333 E24.89948
G1 X73.343 Y148.047 E24.92967
G1 X72.527 Y147.617 E24.97262
G1 X72.295 Y147.487 E24.985
G1 X71.603 Y147.081 E25.02236
G1 X71.146 Y146.797 E25.04742
G1 X70.536 Y146.398 E25.08136
G1 X70.14 Y146.124 E25.10378
G1 X69.405 Y145.589 E25.14611
G1 X69.116 Y145.366 E25.16311
G1 X68.553 Y144.915 E25.1967
G1 X68.062 Y144.498 E25.2267
G1 X67.401 Y143.903 E25.26811
G1 X67.194 Y143.705 E25.28145
G1 X66.645 Y143.166 E25.31727
G1 X66.281 Y142.79 E25.34164
G1 X65.659 Y142.114 E25.38441
G1 X65.448 Y141.872 E25.39936
G1 X64.956 Y141.284 E25.43506
G1 X64.618 Y140.86 E25.46031
G1 X64.342 Y140.492 E25.48173
G1 X63.851 Y139.817 E25.5206
G1 X63.744 Y139.665 E25.52925
G1 X63.449 Y139.231 E25.55369
G1 X63.283 Y138.973 E25.56798
G1 X62.58 Y137.812 E25.63117
G1 X62.447 Y137.579 E25.64367
G1 X62.11 Y136.96 E25.67649
G1 X61.799 Y136.338 E25.70887
G1 X61.524 Y135.722 E25.74028
G1 X61.241 Y135.104 E25.77193
G1 X61.027 Y134.604 E25.79725
G1 X60.926 Y134.35 E25.80998
G1 X60.667 Y133.649 E25.84478
G1 X60.49 Y133.135 E25.87009
G1 X60.236 Y132.327 E25.90953
G1 X60.109 Y131.884 E25.93099
G1 X59.879 Y130.993 E25.97384
G1 X59.809 Y130.688 E25.98841
G1 X59.64 Y129.877 E26.02699
G1 X59.554 Y129.407 E26.04923
G1 X59.418 Y128.539 E26.09015
G1 X59.384 Y128.282 E26.10222
G1 X59.292 Y127.457 E26.14087
G1 X59.244 Y126.883 E26.16769
G1 X59.209 Y126.281 E26.19577
G1 X59.188 Y125.729 E26.22149
G1 X59.184 Y125.564 E26.22918
G1 X59.168 Y124.384 E26.28413
G1 X59.175 Y117.371 E26.61068
G1 X59.198 Y115.886 E26.67984
G1 X59.202 Y113.158 E26.80687
G1 X59.182 Y112.207 E26.85116
G1 X59.179 Y111.832 E26.86862
G1 X59.212 Y78.408 E28.42498
G1 X59.234 Y76.967 E28.49209
G1 X59.236 Y74.217 E28.62014
G1 X59.227 Y73.84 E28.6377
G1 X59.217 Y72.677 E28.69186
G1 X59.224 Y65.671 E29.01809
G1 X59.235 Y65.012 E29.04878
G1 X59.286 Y64.33 E29.08062
G1 X59.417 Y63.66 E29.11241
G1 X59.625 Y63.009 E29.14423
G1 X59.907 Y62.387 E29.17603
G1 X60.261 Y61.802 E29.20787
G1 X60.888 Y61.037 E29.25393
G1 X60.995 Y60.927 E29.26108
M204 S3000
M205 X10 Y10
G0 F3000 X61.396 Y61.317
M204 S1800
M205 X8 Y8
G1 F2400 X61.877 Y60.881 E29.29131
G1 X62.408 Y60.506 E29.32158
G1 X62.98 Y60.199 E29.3518
G1 X63.586 Y59.966 E29.38204
G1 X64.217 Y59.808 E29.41233
G1 X65.086 Y59.72 E29.453
G1 X66.132 Y59.702 E29.50171
G1 X79.353 Y59.716 E30.11734
G1 X80.021 Y59.726 E30.14844
G1 X80.669 Y59.775 E30.1787
G1 X81.305 Y59.904 E30.20892
G1 X81.922 Y60.11 E30.23921
G1 X82.508 Y60.39 E30.26945
G1 X83.055 Y60.74 E30.29969
G1 X83.555 Y61.155 E30.32995
G1 X83.914 Y61.522 E30.35385
G1 X84.328 Y62.022 E30.38408
G1 X84.678 Y62.569 E30.41432
G1 X85.026 Y63.288 E30.45151
G1 X86.191 Y65.728 E30.57742
G1 X87.423 Y68.129 E30.70308
G1 X88.77 Y70.582 E30.83339
G1 X88.997 Y71.047 E30.85748
G1 X89.065 Y71.207 E30.86558
G1 X90.156 Y73.66 E30.99059
G1 X91.325 Y76.102 E31.11665
G1 X92.545 Y78.478 E31.24102
G1 X93.829 Y80.813 E31.3651
G1 X95.191 Y83.128 E31.49017
G1 X96.615 Y85.403 E31.61515
G1 X98.098 Y87.629 E31.73969
G1 X99.631 Y89.793 E31.86318
G1 X101.267 Y91.971 E31.99002
G1 X102.906 Y94.029 E32.11253
G1 X104.649 Y96.094 E32.23836
G1 X106.448 Y98.105 E32.364
G1 X108.276 Y100.04 E32.48795
G1 X110.173 Y101.934 E32.61277
G1 X112.115 Y103.77 E32.73721
G1 X114.125 Y105.561 E32.86257
G1 X116.168 Y107.283 E32.98699
G1 X118.247 Y108.937 E33.11069
G1 X120.42 Y110.567 E33.23718
G1 X122.594 Y112.102 E33.3611
G1 X124.834 Y113.593 E33.4864
G1 X127.085 Y115.001 E33.61003
G1 X129.415 Y116.367 E33.7358
G1 X131.772 Y117.662 E33.86102
G1 X134.136 Y118.874 E33.98473
G1 X136.549 Y120.026 E34.10923
G1 X138.467 Y120.884 E34.20707
G1 X138.998 Y121.116 E34.23405
G1 X139.389 Y121.306 E34.2543
G1 X140.047 Y121.661 E34.28911
G1 X141.193 Y122.302 E34.35025
G1 X143.599 Y123.556 E34.47659
G1 X146.057 Y124.752 E34.60387
G1 X147.109 Y125.245 E34.65797
G1 X147.679 Y125.556 E34.68821
G1 X148.207 Y125.935 E34.71847
G1 X148.603 Y126.292 E34.7433
G1 X148.719 Y126.408 E34.75094
G1 X149.149 Y126.895 E34.78119
G1 X149.516 Y127.431 E34.81144
G1 X149.815 Y128.008 E34.8417
G1 X150.04 Y128.617 E34.87193
G1 X150.189 Y129.25 E34.90221
G1 X150.262 Y129.964 E34.93563
G1 X150.275 Y130.605 E34.96548
G1 X150.275 Y144.236 E35.6002
G1 X150.265 Y144.969 E35.63433
G1 X150.216 Y145.617 E35.66459
G1 X150.088 Y146.254 E35.69485
G1 X149.883 Y146.87 E35.72508
G1 X149.603 Y147.457 E35.75536
G1 X149.254 Y148.004 E35.78558
G1 X148.752 Y148.597 E35.82175
G1 X148.642 Y148.709 E35.82906
G1 X148.159 Y149.143 E35.8593
G1 X147.627 Y149.515 E35.88953
G1 X147.052 Y149.819 E35.91981
G1 X146.445 Y150.05 E35.95005
G1 X145.814 Y150.205 E35.98031
G1 X145.051 Y150.286 E36.01604
G1 X144.381 Y150.299 E36.04724
G1 X137.373 Y150.298 E36.37356
G1 X136.017 Y150.279 E36.43671
G1 X133.271 Y150.279 E36.56458
G1 X133.036 Y150.284 E36.57552
G1 X131.716 Y150.299 E36.63699
G1 X123.993 Y150.299 E36.99661
G1 X105.989 Y150.293 E37.83495
G1 X98.379 Y150.287 E38.1893
G1 X96.858 Y150.265 E38.26013
G1 X94.102 Y150.263 E38.38846
G1 X93.247 Y150.281 E38.42828
G1 X92.852 Y150.284 E38.44668
G1 X85.603 Y150.279 E38.78422
G1 X84.348 Y150.262 E38.84267
G1 X83.502 Y150.228 E38.88209
G1 X83.254 Y150.212 E38.89366
G1 X82.246 Y150.121 E38.94079
G1 X81.95 Y150.086 E38.95467
G1 X81.047 Y149.961 E38.99712
G1 X80.702 Y149.903 E39.01341
G1 X79.984 Y149.767 E39.04743
G1 X79.383 Y149.638 E39.07606
G1 X78.571 Y149.439 E39.11499
G1 X78.352 Y149.381 E39.12554
G1 X77.61 Y149.165 E39.16152
G1 X77.02 Y148.975 E39.19038
G1 X76.338 Y148.737 E39.22402
G1 X75.915 Y148.577 E39.24508
G1 X75.043 Y148.224 E39.28888
G1 X74.818 Y148.127 E39.30029
G1 X74.159 Y147.824 E39.33406
G1 X73.604 Y147.551 E39.36286
G1 X72.788 Y147.121 E39.40581
G1 X72.578 Y147.004 E39.41701
G1 X71.886 Y146.598 E39.45437
G1 X71.453 Y146.329 E39.4781
G1 X70.843 Y145.93 E39.51204
G1 X70.469 Y145.67 E39.53325
G1 X69.745 Y145.143 E39.57495
G1 X69.466 Y144.929 E39.59132
G1 X68.903 Y144.478 E39.62491
G1 X68.436 Y144.081 E39.65345
G1 X67.785 Y143.495 E39.69424
